svgs/light/medal.svg

<svg xmlns="http://www.w3.org/2000/svg" viewBox="0 0 512 512"><!--! Font Awesome Pro 6.3.0 by @fontawesome - https://fontawesome.com License - https://fontawesome.com/license (Commercial License) Copyright 2023 Fonticons, Inc. --><path d="M300.4 275.4l-19.75-40c-4.742-9.422-14.69-14.14-24.62-14.14c-9.969 0-19.93 4.75-24.63 14.27L211.6 275.4l-44.13 6.5C157.1 283.4 148.6 290.5 145.4 300.5c-3.25 10.12-.625 20.88 6.875 28.25l32 31l-7.625 44c-3.063 17.98 11.36 32.21 27.23 32.21c4.215 0 8.531-1.004 12.65-3.207L256 412l39.5 20.75c4.022 2.117 8.276 3.086 12.45 3.086c15.8 0 30.49-13.89 27.43-32.09l-7.625-43.88l32-31.12c7.5-7.375 10.13-18.12 6.875-28.25c-3.25-10-11.75-17.12-22.13-18.62L300.4 275.4zM293.4 348.6l8.803 51.45l-46.22-24.32l-46.36 24.97l8.95-52.11l-37.38-36.45l51.66-7.576l23.13-46.82l23.13 46.82l51.66 7.576L293.4 348.6zM256 160c-97.2 0-176 78.8-176 176S158.8 512 256 512s176-78.8 176-176S353.2 160 256 160zM256 480c-79.4 0-144-64.6-144-144S176.6 192 256 192s144 64.6 144 144S335.4 480 256 480zM112 192c3.094 0 6.219-.875 8.969-2.75c7.313-4.938 9.25-14.91 4.281-22.22L33.85 31.97l98.78-1L196.7 137.8c4.563 7.594 14.47 10.12 21.94 5.5c7.594-4.531 10.06-14.38 5.5-21.94L160.1 14.56C154.7 5.562 144.9 0 134.4 0H29.94C18.75 0 8.596 6.156 3.408 16.09C-1.748 26-.9983 37.88 5.283 46.84l93.47 138.1C101.8 189.5 106.9 192 112 192zM508.6 16.09C503.4 6.156 493.3 0 482.1 0h-104.5c-10.47 0-20.31 5.562-25.66 14.53l-64.09 106.9c-4.563 7.562-2.094 17.41 5.5 21.94c7.531 4.625 17.41 2.094 21.94-5.5L377.6 32h100.5l-91.38 135c-4.969 7.312-3.031 17.28 4.281 22.22C393.8 191.1 396.9 192 400 192c5.125 0 10.16-2.469 13.25-7.031l93.35-137.9C513 37.88 513.8 26 508.6 16.09z"/></svg>

<svg xmlns="http://www.w3.org/2000/svg" viewBox="0 0 512 512"><!-- Font Awesome Pro 6.0.0-alpha2 by @fontawesome - https://fontawesome.com License - https://fontawesome.com/license (Commercial License) --><path d="M300.391 275.375L280.641 235.375C275.898 225.953 265.955 221.234 256.017 221.234C246.048 221.234 236.085 225.984 231.39 235.5L211.64 275.375L167.514 281.875C157.139 283.375 148.639 290.5 145.389 300.5C142.139 310.625 144.764 321.375 152.264 328.75L184.264 359.75L176.639 403.75C173.576 421.727 187.999 435.957 203.866 435.957C208.081 435.957 212.397 434.953 216.515 432.75L256.015 412L295.516 432.75C299.537 434.867 303.791 435.836 307.965 435.836C323.768 435.836 338.456 421.945 335.391 403.75L327.766 359.875L359.767 328.75C367.267 321.375 369.892 310.625 366.642 300.5C363.392 290.5 354.892 283.375 344.516 281.875L300.391 275.375ZM293.391 348.625L302.266 400.125L256.015 375.75L209.639 400.75L218.64 348.625L181.264 312.25L232.89 304.625L256.015 257.75L279.14 304.625L330.766 312.25L293.391 348.625ZM256.005 160C158.803 160 80.003 238.797 80.003 336S158.803 512 256.005 512S432.008 433.203 432.008 336S353.208 160 256.005 160ZM256.005 480C176.602 480 112.003 415.402 112.003 336S176.602 192 256.005 192S400.007 256.598 400.007 336S335.409 480 256.005 480ZM112.003 192C115.097 192 118.222 191.125 120.972 189.25C128.285 184.312 130.222 174.344 125.254 167.031L33.846 31.969L132.629 30.969L196.723 137.844C201.286 145.438 211.192 147.969 218.661 143.344C226.255 138.812 228.724 128.969 224.161 121.406L160.098 14.562C154.723 5.562 144.91 0 134.441 0H29.94C18.752 0 8.596 6.156 3.408 16.094C-1.748 26 -0.998 37.875 5.283 46.844L98.753 184.969C101.847 189.531 106.878 192 112.003 192ZM30.002 32.094L29.94 32H30.065L30.002 32.094ZM508.603 16.094C503.415 6.156 493.259 0 482.071 0H377.601C367.132 0 357.288 5.562 351.944 14.531L287.85 121.406C283.287 128.969 285.756 138.813 293.35 143.344C300.881 147.969 310.756 145.438 315.287 137.844L377.601 32H478.134L386.757 167.031C381.788 174.344 383.726 184.313 391.039 189.25C393.789 191.125 396.914 192 400.007 192C405.133 192 410.164 189.531 413.258 184.969L506.603 47.031C513.009 37.875 513.759 26 508.603 16.094Z"/></svg>
